icons/camera-lens-line.svg

<svg viewBox="0 0 24 24" fill="currentColor" xmlns="http://www.w3.org/2000/svg">
    <path d="M9.85802 19.71L12 16H5.07026C6.10692 17.7921 7.8188 19.1447 9.85802 19.71ZM4.25204 14H8.5359L5.07103 7.99867C4.38987 9.17566 4 10.5423 4 12C4 12.6906 4.08751 13.3608 4.25204 14ZM6.39496 6.29179L8.5359 10L12 4C9.8171 4 7.8384 4.87429 6.39496 6.29179ZM14.142 4.28998L12 8H18.9297C17.8931 6.20791 16.1812 4.85529 14.142 4.28998ZM19.748 10H15.4641L18.929 16.0013C19.6101 14.8243 20 13.4577 20 12C20 11.3094 19.9125 10.6392 19.748 10ZM17.605 17.7082L15.4641 14L12 20C14.1829 20 16.1616 19.1257 17.605 17.7082ZM12 22C6.47715 22 2 17.5228 2 12C2 6.47715 6.47715 2 12 2C17.5228 2 22 6.47715 22 12C22 17.5228 17.5228 22 12 22ZM13.1547 10H10.8453L9.6906 12L10.8453 14H13.1547L14.3094 12L13.1547 10Z"/>
</svg>

<svg xmlns="http://www.w3.org/2000/svg" viewBox="0 0 24 24">
    <g>
        <path fill="none" d="M0 0h24v24H0z"/>
        <path d="M9.858 19.71L12 16H5.07a8.018 8.018 0 0 0 4.788 3.71zM4.252 14h4.284L5.07 7.999A7.963 7.963 0 0 0 4 12c0 .69.088 1.36.252 2zm2.143-7.708L8.535 10 12 4a7.974 7.974 0 0 0-5.605 2.292zm7.747-2.002L12 8h6.93a8.018 8.018 0 0 0-4.788-3.71zM19.748 10h-4.284l3.465 6.001A7.963 7.963 0 0 0 20 12c0-.69-.088-1.36-.252-2zm-2.143 7.708L15.465 14 12 20a7.974 7.974 0 0 0 5.605-2.292zM12 22C6.477 22 2 17.523 2 12S6.477 2 12 2s10 4.477 10 10-4.477 10-10 10zm1.155-12h-2.31l-1.154 2 1.154 2h2.31l1.154-2-1.154-2z"/>
    </g>
</svg>
